X:116
T:Feuille, feuille
R:Hanter dro, En dro
C:trad.
S:Yann Dour - musiques pour la danse bretonne
A:Bretagne
O:France
Z:S. Piron
M:4/4
L:1/4
Q:1/4=180
K:C
e/2d/2 e/2f/2 g g/2f/2|ec|
e/2d/2 e/2f/2 g g/2f/2|e2:|
|:Ad/2d/2dg/2e/2|cc/2B/2AA/2c/2|de/2d/2cB|A2:||
W:
W:Feuille, feuille, feuille s'envole
W:Pique, pique pique le houx
W:Feuille, feuille, feuille s'envole
W:Pique, pique pique le houx
W:C fait dix ans j'allais  la fontaine
W:Et j'ai pris le plaisir d'aimer
W:C fait dix ans j'allais  la fontaine
W:Et j'ai pris le plaisir d'aimer
